; HEADER_BLOCK_START
; generated by AnycubicSlicerNext 1.3.9.3 on 2026-02-20 at 16:20:19
; total layer number: 100
; filament_density: 1.24
; filament_diameter: 1.75
; max_z_height: 20.04
; exclude_object: 0
; model_instances: 1
; source_info: {"models":[{"file_source":0,"mo_file_id":-1,"name":"Incredible_Uusam-Krunk.stl_id_0_copy_0"}],"models_from":0,"plate_index":1,"slice_paras_process":2,"software_version":"AnycubicSlicerNext 1.3.9.3 20260131154219"}
; paint_info = [{"material_type":"PLA","paint_color":[105,164,255],"paint_index":0}]
; project_info = {"flush_multiplier":1.0,"flush_volumes_chan_multipliers":[1.0,1.0,1.0,1.0],"flush_volumes_matrix":[0.0],"flush_volumes_vector":[140.0,140.0]}
; flush_multiplier_calculate_by_acnext: 1
; test_mode: 0
; HEADER_BLOCK_END

; THUMBNAIL_BLOCK_START
; THUMBNAIL_BLOCK_END

; external perimeters extrusion width = 0.42mm
; perimeters extrusion width = 0.45mm
; infill extrusion width = 0.45mm
; solid infill extrusion width = 0.42mm
; top infill extrusion width = 0.42mm
; first layer extrusion width = 0.50mm

; EXECUTABLE_BLOCK_START
M201 X2000 Y2000 Z800 E2000
M203 X300 Y300 Z8 E100
M204 P2000 R2000 T2000
M205 X10.00 Y10.00 Z2.00 E5.00
;TYPE:Custom
G90 ; use absolute coordinates
M83 ; extruder relative mode
M104 S220 ; set extruder temp
M140 S60 ; set bed temp
M190 S60 ; wait for bed temp
M109 S220 ; wait for extruder temp
G28                                        ; move X/Y/Z to min endstops
G1 Z0.28                                   ; lift nozzle a bit 
G92 E0 
G1 Y3 F1800                                    ; zero the extruded length 
G1 X60  E25 F500                       ; Extrude 25mm of filament in a 5cm line. 
G92 E0                                     ; zero the extruded length again 
G1 E-2 F500                                ; Retract a little 
G1 X70 F4000                              ; Quickly wipe away from the filament line
M117
G90
G21
M83 ; use relative distances for extrusion
; EXECUTABLE_BLOCK_HEAD
; filament start gcode
M75 ; The first extruder is ready.
M106 S0
;LAYER_CHANGE
;Z:0.24
;HEIGHT:0.24
; BEFORE_LAYER_CHANGE 0 @ 0.24mm
G92 E0
; AFTER_LAYER_CHANGE 0 @ 0.24mm
M204 S500
; printing object "Incredible Uusam-Krunk.stl" id:0 copy 0
G1 E-.8 F3600
G1 X85.676 Y85.978 F18000
G1 Z.24
G1 E.8 F3600
;TYPE:Brim
;WIDTH:0.5
G1 F2400
G1 X88.182 Y83.671 E.14938
G1 X88.568 Y83.355 E.02189
G1 X91.319 Y81.348 E.14935
G1 X91.741 Y81.077 E.02198
G1 X94.703 Y79.399 E.14928
G1 X95.151 Y79.178 E.02192
G1 X98.283 Y77.85 E.1492
G1 X98.754 Y77.681 E.02195
G1 X102.306 Y76.645 E.16227
G1 X103.695 Y76.355 E.06221
G1 X105.695 Y76.039 E.08878
G1 X106.574 Y75.945 E.03881
G1 X108.175 Y75.819 E.0704
G1 X109.865 Y75.767 E.07416
G1 X111.491 Y75.801 E.07131
G1 X113.384 Y75.944 E.08328
G1 X114.088 Y76.015 E.03104
G1 X115.113 Y76.152 E.04532
G1 X116.467 Y76.388 E.0603
G1 X117.984 Y76.72 E.06809
G1 X121.246 Y77.681 E.14915
G1 X121.717 Y77.85 E.02195
G1 X124.849 Y79.178 E.1492
G1 X125.297 Y79.399 E.02192
G1 X128.259 Y81.077 E.14928
G1 X128.681 Y81.348 E.02198
G1 X131.432 Y83.355 E.14935
G1 X131.818 Y83.671 E.02189
G1 X134.324 Y85.978 E.14938
G1 X134.67 Y86.336 E.02185
G1 X136.898 Y88.915 E.14943
G1 X137.203 Y89.311 E.02193
G1 X139.122 Y92.129 E.14952
G1 X139.379 Y92.555 E.02184
G1 X140.966 Y95.573 E.14953
G1 X141.172 Y96.026 E.02183
G1 X142.407 Y99.206 E.1496
G1 X142.561 Y99.682 E.02191
G1 X143.424 Y102.982 E.14963
G1 X143.522 Y103.469 E.02177
G1 X144.007 Y106.846 E.14963
G1 X144.049 Y107.341 E.02181
G1 X144.147 Y110.753 E.14967
G1 X144.133 Y111.251 E.02184
G1 X143.842 Y114.651 E.14967
G1 X143.771 Y115.144 E.02184
G1 X143.096 Y118.488 E.14964
G1 X142.97 Y118.97 E.02183
G1 X141.918 Y122.216 E.14963
G1 X141.738 Y122.68 E.02185
G1 X140.325 Y125.783 E.14954
G1 X140.093 Y126.225 E.02186
G1 X138.337 Y129.147 E.14952
G1 X138.056 Y129.558 E.02186
G1 X135.979 Y132.261 E.1495
G1 X135.653 Y132.639 E.02189
G1 X133.283 Y135.086 E.1494
G1 X132.916 Y135.424 E.02187
G1 X130.283 Y137.585 E.14938
G1 X129.878 Y137.88 E.02199
G1 X127.017 Y139.724 E.14928
G1 X126.583 Y139.97 E.02187
G1 X123.53 Y141.476 E.14928
G1 X123.069 Y141.672 E.02197
G1 X119.885 Y142.811 E.1483
G1 X119.408 Y142.952 E.02182
G1 X116.076 Y143.732 E.15007
G1 X115.579 Y143.819 E.02213
G1 X112.2 Y144.207 E.14917
G1 X111.701 Y144.236 E.02194
G1 X108.299 Y144.236 E.14916
G1 X107.8 Y144.207 E.02194
G1 X104.421 Y143.819 E.14918
G1 X103.926 Y143.733 E.022
G1 X100.614 Y142.96 E.14918
G1 X100.134 Y142.818 E.02195
G1 X96.931 Y141.672 E.1492
G1 X96.47 Y141.476 E.02197
G1 X93.417 Y139.97 E.14928
G1 X92.983 Y139.724 E.02187
G1 X90.122 Y137.88 E.14928
G1 X89.717 Y137.585 E.02199
G1 X87.084 Y135.424 E.14938
G1 X86.717 Y135.086 E.02187
G1 X84.347 Y132.639 E.1494
G1 X84.021 Y132.261 E.02189
G1 X81.944 Y129.558 E.1495
G1 X81.663 Y129.147 E.02186
G1 X79.917 Y126.242 E.14863
G1 X79.686 Y125.804 E.02173
G1 X78.263 Y122.683 E.15043
G1 X78.082 Y122.215 E.02198
G1 X77.03 Y118.97 E.14963
G1 X76.904 Y118.488 E.02183
G1 X76.229 Y115.144 E.14964
G1 X76.158 Y114.651 E.02184
G1 X75.867 Y111.251 E.14967
G1 X75.853 Y110.753 E.02184
G1 X75.951 Y107.341 E.14967
G1 X75.993 Y106.846 E.02181
G1 X76.478 Y103.469 E.14963
G1 X76.576 Y102.982 E.02177
G1 X77.439 Y99.682 E.14963
G1 X77.593 Y99.206 E.02191
G1 X78.828 Y96.026 E.1496
G1 X79.034 Y95.573 E.02183
G1 X80.621 Y92.555 E.14953
G1 X80.878 Y92.129 E.02184
G1 X82.797 Y89.311 E.14952
G1 X83.102 Y88.915 E.02193
G1 X85.33 Y86.336 E.14943
G1 X85.649 Y86.007 E.0201
G1 X85.971 Y86.32 F18000
G1 F2400
G1 X85.993 Y86.297 E.00137
G1 X88.474 Y84.012 E.14792
G1 X88.846 Y83.707 E.0211
G1 X91.57 Y81.72 E.14789
G1 X91.976 Y81.459 E.02119
G1 X94.909 Y79.797 E.14782
G1 X95.334 Y79.587 E.02079
G1 X98.443 Y78.269 E.14808
G1 X98.889 Y78.109 E.02079
G1 X102.42 Y77.08 E.16132
G1 X103.779 Y76.796 E.06088
G1 X105.75 Y76.485 E.08751
G1 X106.618 Y76.392 E.03827
G1 X108.203 Y76.267 E.06972
G1 X109.864 Y76.215 E.07289
G1 X111.465 Y76.249 E.07025
G1 X113.346 Y76.391 E.08273
G1 X114.038 Y76.461 E.0305
G1 X115.042 Y76.595 E.0444
G1 X116.383 Y76.829 E.05972
G1 X117.867 Y77.154 E.06663
G1 X121.11 Y78.109 E.14827
G1 X121.557 Y78.269 E.02083
G1 X124.659 Y79.584 E.14774
G1 X125.091 Y79.797 E.02113
G1 X128.024 Y81.459 E.14782
G1 X128.43 Y81.72 E.02119
G1 X131.154 Y83.707 E.14789
G1 X131.521 Y84.007 E.02076
G1 X134.007 Y86.297 E.14826
G1 X134.337 Y86.636 E.02073
G1 X136.548 Y89.195 E.14831
G1 X136.837 Y89.571 E.0208
G1 X138.747 Y92.374 E.14873
G1 X138.99 Y92.779 E.02072
G1 X140.565 Y95.774 E.14841
G1 X140.76 Y96.204 E.02071
G1 X141.983 Y99.353 E.14814
G1 X142.131 Y99.811 E.02112
G1 X142.986 Y103.08 E.14817
G1 X143.081 Y103.549 E.02098
G1 X143.56 Y106.893 E.14818
G1 X143.601 Y107.363 E.02069
G1 X143.698 Y110.749 E.14854
G1 X143.685 Y111.221 E.02072
G1 X143.395 Y114.604 E.14888
G1 X143.328 Y115.071 E.02072
G1 X142.658 Y118.391 E.14852
G1 X142.538 Y118.847 E.02071
G1 X141.494 Y122.069 E.14851
G1 X141.323 Y122.509 E.02073
G1 X139.924 Y125.582 E.14808
G1 X139.701 Y126.008 E.02107
G1 X137.961 Y128.901 E.14806
G1 X137.691 Y129.298 E.02107
G1 X135.634 Y131.975 E.14804
G1 X135.324 Y132.333 E.02077
G1 X132.972 Y134.762 E.14827
G1 X132.624 Y135.082 E.02075
G1 X130.005 Y137.232 E.14859
G1 X129.621 Y137.512 E.02086
G1 X126.781 Y139.342 E.14816
G1 X126.369 Y139.575 E.02075
G1 X123.34 Y141.07 E.14816
G1 X122.902 Y141.255 E.02084
G1 X119.75 Y142.383 E.14684
G1 X119.29 Y142.519 E.02103
G1 X115.991 Y143.292 E.1486
G1 X115.511 Y143.375 E.02134
G1 X112.165 Y143.76 E.1477
G1 X111.692 Y143.787 E.02081
G1 X108.308 Y143.787 E.14837
G1 X107.835 Y143.76 E.02082
G1 X104.481 Y143.374 E.14805
G1 X104.012 Y143.292 E.02088
G1 X100.732 Y142.527 E.14771
G1 X100.269 Y142.39 E.02116
G1 X97.098 Y141.255 E.14773
G1 X96.653 Y141.066 E.02118
G1 X93.631 Y139.575 E.14782
G1 X93.219 Y139.342 E.02075
G1 X90.379 Y137.512 E.14816
G1 X89.995 Y137.232 E.02086
G1 X87.381 Y135.088 E.14826
G1 X87.033 Y134.767 E.02075
G1 X84.676 Y132.333 E.14861
G1 X84.366 Y131.975 E.02077
G1 X82.305 Y129.292 E.14838
G1 X82.039 Y128.901 E.02073
G1 X80.31 Y126.025 E.14717
G1 X80.087 Y125.602 E.02095
G1 X78.678 Y122.512 E.14897
G1 X78.503 Y122.061 E.02119
G1 X77.462 Y118.847 E.14816
G1 X77.342 Y118.391 E.02071
G1 X76.672 Y115.071 E.14852
G1 X76.605 Y114.604 E.02072
G1 X76.315 Y111.221 E.14888
G1 X76.302 Y110.749 E.02072
G1 X76.399 Y107.371 E.14821
G1 X76.44 Y106.893 E.02102
G1 X76.92 Y103.541 E.14851
G1 X77.014 Y103.08 E.02065
G1 X77.869 Y99.811 E.14817
G1 X78.017 Y99.353 E.02112
G1 X79.24 Y96.204 E.14814
G1 X79.439 Y95.767 E.02105
G1 X81.01 Y92.779 E.14807
G1 X81.253 Y92.374 E.02072
G1 X83.163 Y89.571 E.14873
G1 X83.452 Y89.195 E.02081
G1 X85.663 Y86.636 E.14831
G1 X85.943 Y86.348 E.01761
G1 X86.265 Y86.661 F18000
G1 F2400
G1 X86.308 Y86.616 E.00275
G1 X88.765 Y84.354 E.14647
G1 X89.123 Y84.06 E.02031
G1 X91.821 Y82.093 E.14642
G1 X92.212 Y81.841 E.0204
G1 X95.116 Y80.196 E.14636
G1 X95.518 Y79.997 E.01967
G1 X98.602 Y78.689 E.14695
G1 X99.024 Y78.537 E.01963
G1 X102.534 Y77.514 E.16037
G1 X103.863 Y77.237 E.05954
G1 X105.806 Y76.93 E.08624
G1 X106.661 Y76.838 E.03774
G1 X108.23 Y76.715 E.06903
G1 X109.862 Y76.664 E.07161
G1 X111.44 Y76.697 E.06919
G1 X113.308 Y76.838 E.08218
G1 X113.988 Y76.907 E.02997
G1 X114.971 Y77.038 E.04348
G1 X116.3 Y77.269 E.05915
G1 X117.751 Y77.588 E.06517
G1 X120.975 Y78.537 E.14738
G1 X121.398 Y78.689 E.0197
G1 X124.468 Y79.991 E.14628
G1 X124.884 Y80.196 E.02034
G1 X127.788 Y81.841 E.14636
G1 X128.179 Y82.093 E.0204
G1 X130.877 Y84.06 E.14643
G1 X131.223 Y84.343 E.01964
G1 X133.692 Y86.616 E.14714
G1 X134.003 Y86.937 E.01961
G1 X136.197 Y89.476 E.14719
G1 X136.471 Y89.831 E.01968
G1 X138.371 Y92.619 E.14794
G1 X138.6 Y93.002 E.0196
G1 X140.163 Y95.975 E.14729
G1 X140.348 Y96.382 E.01959
G1 X141.558 Y99.5 E.14669
G1 X141.701 Y99.941 E.02033
G1 X142.548 Y103.177 E.14671
G1 X142.639 Y103.629 E.0202
G1 X143.114 Y106.941 E.14673
G1 X143.153 Y107.385 E.01957
G1 X143.249 Y110.745 E.14743
G1 X143.237 Y111.192 E.0196
G1 X142.949 Y114.556 E.14809
G1 X142.885 Y114.999 E.01959
G1 X142.22 Y118.293 E.1474
G1 X142.106 Y118.725 E.01958
G1 X141.07 Y121.922 E.14739
G1 X140.908 Y122.339 E.01961
G1 X139.523 Y125.382 E.14663
G1 X139.308 Y125.791 E.02029
G1 X137.585 Y128.656 E.1466
G1 X137.325 Y129.038 E.02028
G1 X135.288 Y131.688 E.14659
G1 X134.996 Y132.028 E.01964
G1 X132.662 Y134.438 E.14715
G1 X132.333 Y134.741 E.01962
G1 X129.728 Y136.879 E.1478
G1 X129.364 Y137.144 E.01973
G1 X126.546 Y138.96 E.14703
G1 X126.156 Y139.18 E.01962
G1 X123.149 Y140.663 E.14704
G1 X122.735 Y140.838 E.01971
G1 X119.614 Y141.956 E.14539
G1 X119.171 Y142.086 E.02025
G1 X115.905 Y142.851 E.14714
G1 X115.443 Y142.931 E.02054
G1 X112.131 Y143.312 E.14624
G1 X111.683 Y143.338 E.01969
G1 X108.317 Y143.338 E.14758
G1 X107.869 Y143.312 E.01969
G1 X104.541 Y142.929 E.14692
G1 X104.098 Y142.852 E.01974
G1 X100.85 Y142.094 E.14625
G1 X100.405 Y141.962 E.02037
G1 X97.265 Y140.838 E.14627
G1 X96.837 Y140.657 E.02039
G1 X93.844 Y139.18 E.14636
G1 X93.454 Y138.96 E.01962
G1 X90.636 Y137.144 E.14703
G1 X90.272 Y136.879 E.01973
G1 X87.679 Y134.751 E.14713
G1 X87.349 Y134.449 E.01962
G1 X85.004 Y132.028 E.14782
G1 X84.712 Y131.688 E.01964
G1 X82.666 Y129.026 E.14725
G1 X82.415 Y128.656 E.01961
G1 X80.703 Y125.808 E.14572
G1 X80.489 Y125.401 E.02017
G1 X79.093 Y122.341 E.14751
G1 X78.925 Y121.907 E.0204
G1 X77.894 Y118.725 E.14671
G1 X77.78 Y118.293 E.01958
G1 X77.115 Y114.999 E.1474
G1 X77.051 Y114.556 E.01959
G1 X76.763 Y111.192 E.14809
G1 X76.751 Y110.745 E.0196
G1 X76.847 Y107.4 E.14676
G1 X76.886 Y106.94 E.02024
G1 X77.363 Y103.614 E.14739
G1 X77.452 Y103.177 E.01953
G1 X78.299 Y99.941 E.14672
G1 X78.442 Y99.5 E.02033
G1 X79.652 Y96.382 E.14668
G1 X79.843 Y95.961 E.02026
G1 X81.4 Y93.002 E.14662
G1 X81.629 Y92.619 E.0196
G1 X83.529 Y89.831 E.14794
G1 X83.803 Y89.476 E.01968
G1 X85.997 Y86.937 E.14719
G1 X86.237 Y86.689 E.01511
G1 X86.559 Y87.002 F18000
G1 F2400
G1 X86.624 Y86.935 E.00412
G1 X89.057 Y84.695 E.14502
G1 X89.401 Y84.412 E.01952
G1 X92.072 Y82.465 E.14496
G1 X92.447 Y82.223 E.01961
G1 X95.322 Y80.594 E.14491
G1 X95.701 Y80.407 E.01854
G1 X98.762 Y79.108 E.14583
G1 X99.158 Y78.966 E.01846
G1 X102.648 Y77.948 E.15941
G1 X103.947 Y77.677 E.05821
G1 X105.861 Y77.375 E.08497
G1 X106.705 Y77.285 E.0372
G1 X108.258 Y77.162 E.06835
G1 X109.861 Y77.113 E.07034
G1 X111.415 Y77.145 E.06814
G1 X113.271 Y77.285 E.08163
G1 X113.938 Y77.353 E.02943
G1 X114.9 Y77.481 E.04256
G1 X116.216 Y77.71 E.05857
G1 X117.635 Y78.021 E.06371
G1 X120.839 Y78.965 E.14649
G1 X121.238 Y79.108 E.01856
G1 X124.278 Y80.397 E.14483
G1 X124.678 Y80.594 E.01955
G1 X127.553 Y82.223 E.14489
G1 X127.928 Y82.465 E.01961
G1 X130.599 Y84.413 E.14498
G1 X130.926 Y84.68 E.01851
G1 X133.376 Y86.935 E.14602
G1 X133.669 Y87.237 E.01848
G1 X135.847 Y89.757 E.14607
G1 X136.105 Y90.092 E.01854
G1 X137.995 Y92.864 E.14714
G1 X138.211 Y93.225 E.01847
G1 X139.762 Y96.176 E.14617
G1 X139.936 Y96.559 E.01847
G1 X141.134 Y99.647 E.14524
G1 X141.272 Y100.071 E.01955
G1 X142.11 Y103.275 E.14526
G1 X142.198 Y103.709 E.01942
G1 X142.668 Y106.988 E.14529
G1 X142.704 Y107.407 E.01844
G1 X142.8 Y110.742 E.14631
G1 X142.789 Y111.163 E.01847
G1 X142.503 Y114.509 E.14729
G1 X142.442 Y114.926 E.01847
G1 X141.782 Y118.195 E.14628
G1 X141.674 Y118.602 E.01846
G1 X140.646 Y121.775 E.14627
G1 X140.493 Y122.168 E.01848
G1 X139.122 Y125.181 E.14518
G1 X138.915 Y125.574 E.0195
G1 X137.21 Y128.411 E.14514
G1 X136.959 Y128.778 E.0195
G1 X134.943 Y131.402 E.14514
G1 X134.667 Y131.722 E.01851
G1 X132.351 Y134.114 E.14604
G1 X132.041 Y134.4 E.01849
G1 X129.45 Y136.527 E.147
G1 X129.107 Y136.776 E.01859
G1 X126.31 Y138.578 E.14591
G1 X125.943 Y138.785 E.01849
G1 X122.959 Y140.257 E.14592
G1 X122.569 Y140.422 E.01858
G1 X119.479 Y141.528 E.14394
G1 X119.053 Y141.653 E.01946
G1 X115.819 Y142.41 E.14567
G1 X115.375 Y142.488 E.01975
G1 X112.096 Y142.865 E.14478
G1 X111.673 Y142.89 E.01855
G1 X108.327 Y142.89 E.14677
G1 X107.904 Y142.865 E.01855
G1 X104.602 Y142.484 E.1458
G1 X104.184 Y142.411 E.01861
G1 X100.969 Y141.661 E.14479
G1 X100.54 Y141.535 E.01958
G1 X97.432 Y140.422 E.1448
G1 X97.02 Y140.247 E.0196
G1 X94.057 Y138.785 E.14491
G1 X93.69 Y138.578 E.0185
G1 X90.893 Y136.776 E.14591
G1 X90.55 Y136.527 E.01859
G1 X87.976 Y134.415 E.14601
G1 X87.665 Y134.13 E.01849
G1 X85.333 Y131.722 E.14702
G1 X85.057 Y131.402 E.01851
G1 X83.027 Y128.76 E.14614
G1 X82.791 Y128.411 E.01848
G1 X81.096 Y125.591 E.14428
G1 X80.89 Y125.2 E.01939
G1 X79.508 Y122.17 E.14605
G1 X79.346 Y121.753 E.01961
G1 X78.326 Y118.602 E.14526
G1 X78.218 Y118.195 E.01846
G1 X77.558 Y114.926 E.14628
G1 X77.497 Y114.509 E.01847
G1 X77.211 Y111.163 E.14729
G1 X77.2 Y110.742 E.01847
G1 X77.294 Y107.43 E.14531
G1 X77.332 Y106.988 E.01946
G1 X77.806 Y103.686 E.14626
G1 X77.89 Y103.275 E.01841
G1 X78.728 Y100.071 E.14527
G1 X78.866 Y99.646 E.01955
G1 X80.064 Y96.56 E.14522
G1 X80.248 Y96.155 E.01948
G1 X81.789 Y93.225 E.14518
G1 X82.005 Y92.864 E.01847
G1 X83.895 Y90.092 E.14714
G1 X84.153 Y89.757 E.01854
G1 X86.331 Y87.237 E.14607
G1 X86.531 Y87.031 E.0126
G1 X86.853 Y87.344 F18000
G1 F2400
G1 X86.94 Y87.254 E.00551
G1 X89.348 Y85.036 E.14358
G1 X89.679 Y84.765 E.01874
G1 X92.322 Y82.837 E.1435
G1 X92.683 Y82.605 E.01882
G1 X95.529 Y80.992 E.14346
G1 X95.885 Y80.816 E.01741
G1 X98.923 Y79.527 E.14471
G1 X99.293 Y79.394 E.01728
G1 X102.762 Y78.383 E.15845
G1 X104.031 Y78.118 E.05687
G1 X105.917 Y77.82 E.08371
G1 X106.748 Y77.731 E.03666
G1 X108.286 Y77.61 E.06766
G1 X109.86 Y77.562 E.06907
G1 X111.389 Y77.593 E.06708
G1 X113.229 Y77.732 E.08093
G1 X114.828 Y77.924 E.0706
G1 X116.132 Y78.151 E.05807
G1 X117.519 Y78.455 E.06225
G1 X120.704 Y79.393 E.1456
G1 X121.077 Y79.527 E.01742
G1 X124.088 Y80.803 E.14339
G1 X124.471 Y80.993 E.01877
G1 X127.317 Y82.605 E.14343
G1 X127.678 Y82.837 E.01882
G1 X130.322 Y84.765 E.14353
G1 X130.629 Y85.016 E.01738
G1 X133.06 Y87.254 E.1449
G1 X133.336 Y87.537 E.01735
G1 X135.497 Y90.038 E.14495
G1 X135.74 Y90.352 E.01741
G1 X137.619 Y93.109 E.14633
G1 X137.822 Y93.449 E.01734
G1 X139.361 Y96.376 E.14506
