; HEADER_BLOCK_START
; generated by AnycubicSlicerNext 1.3.9.3 on 2026-02-20 at 18:39:54
; total layer number: 63
; filament_density: 1.24
; filament_diameter: 1.75
; max_z_height: 13.04
; exclude_object: 0
; model_instances: 1
; source_info: {"models":[{"file_source":0,"mo_file_id":-1,"name":"Frantic_Tumelo_1_.stl_id_0_copy_0"}],"models_from":0,"plate_index":1,"slice_paras_process":1,"software_version":"AnycubicSlicerNext 1.3.9.3 20260131154219"}
; paint_info = [{"material_type":"PLA","paint_color":[105,164,255],"paint_index":0}]
; project_info = {"flush_multiplier":1.0,"flush_volumes_chan_multipliers":[1.0,1.0,1.0,1.0],"flush_volumes_matrix":[0.0],"flush_volumes_vector":[140.0,140.0]}
; flush_multiplier_calculate_by_acnext: 1
; test_mode: 0
; HEADER_BLOCK_END

; THUMBNAIL_BLOCK_START
; THUMBNAIL_BLOCK_END

; external perimeters extrusion width = 0.42mm
; perimeters extrusion width = 0.45mm
; infill extrusion width = 0.45mm
; solid infill extrusion width = 0.42mm
; top infill extrusion width = 0.42mm
; support material extrusion width = 0.40mm
; first layer extrusion width = 0.50mm

; EXECUTABLE_BLOCK_START
M201 X2000 Y2000 Z800 E2000
M203 X300 Y300 Z8 E100
M204 P2000 R2000 T2000
M205 X10.00 Y10.00 Z2.00 E5.00
;TYPE:Custom
G90 ; use absolute coordinates
M83 ; extruder relative mode
M104 S220 ; set extruder temp
M140 S60 ; set bed temp
M190 S60 ; wait for bed temp
M109 S220 ; wait for extruder temp
G28                                        ; move X/Y/Z to min endstops
G1 Z0.28                                   ; lift nozzle a bit 
G92 E0 
G1 Y3 F1800                                    ; zero the extruded length 
G1 X60  E25 F500                       ; Extrude 25mm of filament in a 5cm line. 
G92 E0                                     ; zero the extruded length again 
G1 E-2 F500                                ; Retract a little 
G1 X70 F4000                              ; Quickly wipe away from the filament line
M117
G90
G21
M83 ; use relative distances for extrusion
; EXECUTABLE_BLOCK_HEAD
; filament start gcode
M75 ; The first extruder is ready.
M106 S0
;LAYER_CHANGE
;Z:0.24
;HEIGHT:0.24
; BEFORE_LAYER_CHANGE 0 @ 0.24mm
G92 E0
; AFTER_LAYER_CHANGE 0 @ 0.24mm
M204 S500
; printing object "Frantic Tumelo (1).stl" id:0 copy 0
G1 E-.8 F3600
G1 X84.909 Y86.655 F18000
G1 Z.24
G1 E.8 F3600
;TYPE:Brim
;WIDTH:0.5
G1 F2400
G1 X87.356 Y84.277 E.14964
G1 X87.733 Y83.95 E.0219
G1 X90.436 Y81.866 E.14969
G1 X90.848 Y81.584 E.02188
G1 X93.77 Y79.822 E.14965
G1 X94.211 Y79.589 E.02189
G1 X97.315 Y78.171 E.14963
G1 X97.781 Y77.99 E.02195
G1 X101.027 Y76.936 E.14967
G1 X101.508 Y76.809 E.02182
G1 X104.853 Y76.131 E.14966
G1 X105.348 Y76.059 E.02195
G1 X108.748 Y75.767 E.14967
G1 X109.247 Y75.753 E.0219
G1 X112.618 Y75.85 E.14788
G1 X113.157 Y75.894 E.02372
G1 X116.534 Y76.38 E.14962
G1 X117.021 Y76.479 E.02182
G1 X120.322 Y77.345 E.14966
G1 X120.798 Y77.5 E.02195
G1 X123.978 Y78.738 E.14967
G1 X124.433 Y78.946 E.02192
G1 X127.45 Y80.539 E.14965
G1 X127.877 Y80.796 E.02183
G1 X130.694 Y82.722 E.14967
G1 X131.09 Y83.027 E.02195
G1 X133.669 Y85.262 E.14963
G1 X134.027 Y85.61 E.0219
G1 X136.334 Y88.125 E.14967
G1 X136.649 Y88.51 E.02184
G1 X138.656 Y91.271 E.14967
G1 X138.926 Y91.691 E.02193
G1 X140.604 Y94.662 E.14963
G1 X140.824 Y95.111 E.02193
G1 X142.152 Y98.255 E.14969
G1 X142.32 Y98.725 E.02185
G1 X143.281 Y101.998 E.14964
G1 X143.394 Y102.485 E.02191
G1 X143.976 Y105.847 E.14965
G1 X144.033 Y106.343 E.02187
G1 X144.228 Y109.75 E.14967
G1 X144.228 Y110.25 E.02194
G1 X144.033 Y113.657 E.14967
G1 X143.976 Y114.153 E.02187
G1 X143.394 Y117.515 E.14965
G1 X143.281 Y118.002 E.02191
G1 X142.32 Y121.275 E.14964
G1 X142.152 Y121.745 E.02185
G1 X140.824 Y124.889 E.14969
G1 X140.604 Y125.338 E.02193
G1 X138.926 Y128.309 E.14963
G1 X138.656 Y128.729 E.02193
G1 X136.649 Y131.49 E.14967
G1 X136.334 Y131.875 E.02184
G1 X134.027 Y134.39 E.14967
G1 X133.669 Y134.738 E.0219
G1 X131.09 Y136.973 E.14963
G1 X130.694 Y137.278 E.02195
G1 X127.877 Y139.204 E.14967
G1 X127.45 Y139.461 E.02183
G1 X124.433 Y141.054 E.14965
G1 X123.978 Y141.262 E.02192
G1 X120.798 Y142.5 E.14967
G1 X120.322 Y142.655 E.02195
G1 X117.021 Y143.521 E.14966
G1 X116.534 Y143.62 E.02182
G1 X113.156 Y144.106 E.14964
G1 X112.658 Y144.149 E.02192
G1 X109.247 Y144.247 E.14966
G1 X108.748 Y144.233 E.0219
G1 X105.348 Y143.941 E.14967
G1 X104.853 Y143.869 E.02195
G1 X101.508 Y143.191 E.14966
G1 X101.027 Y143.064 E.02182
G1 X97.781 Y142.01 E.14967
G1 X97.315 Y141.829 E.02195
G1 X94.211 Y140.411 E.14963
G1 X93.77 Y140.178 E.02189
G1 X90.848 Y138.416 E.14965
G1 X90.436 Y138.134 E.02188
G1 X87.733 Y136.05 E.14968
G1 X87.356 Y135.723 E.0219
G1 X84.909 Y133.345 E.14964
G1 X84.572 Y132.978 E.02183
G1 X82.411 Y130.337 E.14966
G1 X82.117 Y129.931 E.02201
G1 X80.272 Y127.06 E.14965
G1 X80.028 Y126.627 E.02181
G1 X78.522 Y123.564 E.14968
G1 X78.327 Y123.104 E.02193
G1 X77.18 Y119.89 E.14965
G1 X77.04 Y119.411 E.02188
G1 X76.267 Y116.088 E.14965
G1 X76.181 Y115.595 E.02193
G1 X75.793 Y112.204 E.14966
G1 X75.764 Y111.707 E.02187
G1 X75.764 Y108.293 E.14969
G1 X75.793 Y107.796 E.02187
G1 X76.181 Y104.405 E.14966
G1 X76.267 Y103.912 E.02193
G1 X77.04 Y100.589 E.14965
G1 X77.18 Y100.11 E.02188
G1 X78.327 Y96.896 E.14965
G1 X78.522 Y96.436 E.02193
G1 X80.028 Y93.373 E.14968
G1 X80.272 Y92.94 E.02181
G1 X82.117 Y90.069 E.14965
G1 X82.411 Y89.663 E.02201
G1 X84.572 Y87.022 E.14966
G1 X84.882 Y86.685 E.02008
G1 X85.212 Y86.988 F18000
G1 F2400
G1 X85.234 Y86.965 E.00137
G1 X87.656 Y84.61 E.14818
G1 X88.02 Y84.295 E.02112
G1 X90.697 Y82.231 E.14822
G1 X91.094 Y81.96 E.02109
G1 X93.987 Y80.214 E.14819
G1 X94.406 Y79.993 E.02077
G1 X97.493 Y78.583 E.14884
G1 X97.936 Y78.411 E.02082
G1 X101.157 Y77.365 E.14854
G1 X101.614 Y77.245 E.0207
G1 X104.925 Y76.573 E.1482
G1 X105.403 Y76.505 E.02116
G1 X108.77 Y76.216 E.14821
G1 X109.251 Y76.202 E.02111
G1 X112.59 Y76.298 E.14647
G1 X113.103 Y76.339 E.02257
G1 X116.453 Y76.821 E.14847
G1 X116.916 Y76.915 E.0207
G1 X120.199 Y77.777 E.14887
G1 X120.651 Y77.924 E.02083
G1 X123.8 Y79.15 E.1482
G1 X124.238 Y79.35 E.02113
G1 X127.233 Y80.932 E.14853
G1 X127.637 Y81.176 E.02071
G1 X130.427 Y83.083 E.14821
G1 X130.809 Y83.377 E.02116
G1 X133.362 Y85.59 E.14817
G1 X133.702 Y85.92 E.02077
G1 X135.992 Y88.416 E.14855
G1 X136.292 Y88.781 E.02072
G1 X138.283 Y91.521 E.14855
G1 X138.54 Y91.92 E.0208
G1 X140.209 Y94.875 E.14884
G1 X140.418 Y95.301 E.02081
G1 X141.733 Y98.415 E.14823
G1 X141.894 Y98.867 E.02106
G1 X142.846 Y102.109 E.14818
G1 X142.955 Y102.578 E.02112
G1 X143.531 Y105.907 E.14819
G1 X143.586 Y106.377 E.02074
G1 X143.78 Y109.759 E.14855
G1 X143.78 Y110.233 E.02082
G1 X143.586 Y113.623 E.14888
G1 X143.531 Y114.093 E.02074
G1 X142.954 Y117.43 E.14853
G1 X142.846 Y117.891 E.02078
G1 X141.892 Y121.14 E.14851
G1 X141.733 Y121.585 E.02073
G1 X140.418 Y124.699 E.14823
G1 X140.205 Y125.132 E.02114
G1 X138.544 Y128.073 E.14816
G1 X138.283 Y128.479 E.02114
G1 X136.296 Y131.213 E.14821
G1 X135.997 Y131.579 E.02072
G1 X133.707 Y134.074 E.14855
G1 X133.368 Y134.405 E.02077
G1 X130.809 Y136.623 E.14851
G1 X130.433 Y136.913 E.02082
G1 X127.631 Y138.828 E.14888
G1 X127.226 Y139.072 E.02071
G1 X124.231 Y140.653 E.14853
G1 X123.8 Y140.85 E.0208
G1 X120.651 Y142.076 E.1482
G1 X120.192 Y142.225 E.02116
G1 X116.923 Y143.083 E.1482
G1 X116.453 Y143.179 E.02103
G1 X113.109 Y143.66 E.14818
G1 X112.637 Y143.701 E.02079
G1 X109.243 Y143.798 E.14888
G1 X108.77 Y143.784 E.02077
G1 X105.403 Y143.495 E.14821
G1 X104.925 Y143.427 E.02116
G1 X101.614 Y142.755 E.1482
G1 X101.157 Y142.635 E.0207
G1 X97.936 Y141.589 E.14854
G1 X97.486 Y141.414 E.02116
G1 X94.413 Y140.01 E.14817
G1 X93.994 Y139.789 E.02077
G1 X91.094 Y138.04 E.14853
G1 X90.703 Y137.773 E.02076
G1 X88.014 Y135.7 E.1489
G1 X87.657 Y135.39 E.02078
G1 X85.228 Y133.029 E.14852
G1 X84.909 Y132.681 E.02071
G1 X82.769 Y130.066 E.14819
G1 X82.485 Y129.675 E.02121
G1 X80.659 Y126.831 E.14819
G1 X80.427 Y126.421 E.02069
G1 X78.931 Y123.381 E.14855
G1 X78.744 Y122.937 E.02114
G1 X77.608 Y119.755 E.14819
G1 X77.475 Y119.301 E.02076
G1 X76.706 Y115.995 E.14886
G1 X76.625 Y115.527 E.02081
G1 X76.24 Y112.162 E.14853
G1 X76.213 Y111.69 E.02075
G1 X76.213 Y108.31 E.14823
G1 X76.24 Y107.83 E.02108
G1 X76.625 Y104.473 E.1482
G1 X76.707 Y103.998 E.02115
G1 X77.473 Y100.707 E.14819
G1 X77.606 Y100.253 E.02076
G1 X78.744 Y97.063 E.14853
G1 X78.931 Y96.619 E.02114
G1 X80.423 Y93.586 E.14822
G1 X80.655 Y93.175 E.02069
G1 X82.485 Y90.325 E.14853
G1 X82.764 Y89.94 E.02088
G1 X84.914 Y87.313 E.14887
G1 X85.185 Y87.018 E.01759
G1 X85.516 Y87.321 F18000
G1 F2400
G1 X85.558 Y87.275 E.00275
G1 X87.957 Y84.944 E.14673
G1 X88.307 Y84.64 E.02033
G1 X90.958 Y82.596 E.14676
G1 X91.34 Y82.335 E.02031
G1 X94.205 Y80.607 E.14674
G1 X94.601 Y80.398 E.01964
G1 X97.671 Y78.995 E.14805
G1 X98.09 Y78.832 E.01969
G1 X101.287 Y77.795 E.14742
G1 X101.719 Y77.682 E.01958
G1 X104.998 Y77.016 E.14675
G1 X105.458 Y76.95 E.02037
G1 X108.792 Y76.664 E.14674
G1 X109.255 Y76.651 E.02032
G1 X112.561 Y76.745 E.14507
G1 X113.048 Y76.785 E.02142
G1 X116.373 Y77.263 E.14732
G1 X116.811 Y77.351 E.01957
G1 X120.077 Y78.209 E.14808
G1 X120.504 Y78.348 E.0197
G1 X123.622 Y79.562 E.14674
G1 X124.043 Y79.755 E.02034
G1 X127.009 Y81.321 E.14706
G1 X127.398 Y81.555 E.01992
G1 X130.16 Y83.444 E.14675
G1 X130.522 Y83.722 E.02004
G1 X133.056 Y85.918 E.14705
G1 X133.378 Y86.23 E.01965
G1 X135.651 Y88.707 E.14743
G1 X135.934 Y89.052 E.01959
G1 X137.911 Y91.771 E.14743
G1 X138.154 Y92.148 E.01968
G1 X139.814 Y95.088 E.14805
G1 X140.011 Y95.491 E.01968
G1 X141.313 Y98.574 E.14677
G1 X141.469 Y99.009 E.02028
G1 X142.411 Y102.219 E.14672
G1 X142.516 Y102.671 E.02033
G1 X143.087 Y105.968 E.14674
G1 X143.138 Y106.412 E.01962
G1 X143.331 Y109.768 E.14742
G1 X143.331 Y110.217 E.01969
G1 X143.138 Y113.588 E.14809
G1 X143.087 Y114.032 E.01962
G1 X142.513 Y117.344 E.14741
G1 X142.411 Y117.781 E.01966
G1 X141.464 Y121.005 E.14739
G1 X141.313 Y121.426 E.0196
G1 X140.011 Y124.509 E.14677
G1 X139.806 Y124.926 E.02036
G1 X138.162 Y127.838 E.1467
G1 X137.911 Y128.229 E.02035
G1 X135.943 Y130.936 E.14676
G1 X135.661 Y131.282 E.0196
G1 X133.388 Y133.759 E.14743
G1 X133.067 Y134.072 E.01965
G1 X130.528 Y136.273 E.14738
G1 X130.173 Y136.547 E.01969
G1 X127.385 Y138.453 E.14809
G1 X127.002 Y138.683 E.01958
G1 X124.03 Y140.252 E.14741
G1 X123.622 Y140.438 E.01967
G1 X120.504 Y141.652 E.14674
G1 X120.062 Y141.796 E.02038
G1 X116.826 Y142.645 E.14674
G1 X116.373 Y142.737 E.02025
G1 X113.061 Y143.214 E.14673
G1 X112.615 Y143.253 E.01966
G1 X109.24 Y143.349 E.14808
G1 X108.792 Y143.336 E.01965
G1 X105.45 Y143.049 E.14709
G1 X104.998 Y142.984 E.02003
G1 X101.719 Y142.318 E.14675
G1 X101.28 Y142.203 E.01992
G1 X98.09 Y141.168 E.14708
G1 X97.657 Y140.999 E.02037
G1 X94.614 Y139.609 E.14671
G1 X94.218 Y139.4 E.01964
G1 X91.34 Y137.665 E.14741
G1 X90.97 Y137.412 E.01963
G1 X88.296 Y135.35 E.1481
G1 X87.957 Y135.057 E.01965
G1 X85.547 Y132.714 E.1474
G1 X85.246 Y132.384 E.01959
G1 X83.127 Y129.795 E.14674
G1 X82.853 Y129.418 E.02042
G1 X81.045 Y126.603 E.14674
G1 X80.825 Y126.215 E.01957
G1 X79.341 Y123.198 E.14743
G1 X79.161 Y122.771 E.02035
G1 X78.036 Y119.62 E.14673
G1 X77.91 Y119.19 E.01963
G1 X77.145 Y115.902 E.14807
G1 X77.069 Y115.46 E.01968
G1 X76.686 Y112.12 E.14741
G1 X76.661 Y111.673 E.01962
G1 X76.661 Y108.327 E.14678
G1 X76.688 Y107.865 E.0203
G1 X77.069 Y104.541 E.14673
G1 X77.148 Y104.083 E.02036
G1 X77.906 Y100.824 E.14673
G1 X78.032 Y100.395 E.01963
G1 X79.161 Y97.229 E.1474
G1 X79.341 Y96.802 E.02035
G1 X80.818 Y93.799 E.14676
G1 X81.037 Y93.41 E.01957
G1 X82.853 Y90.582 E.1474
G1 X83.118 Y90.217 E.01974
G1 X85.256 Y87.604 E.14807
G1 X85.488 Y87.351 E.01509
G1 X85.819 Y87.655 F18000
G1 F2400
G1 X85.882 Y87.586 E.00412
G1 X88.258 Y85.277 E.14528
G1 X88.595 Y84.985 E.01954
G1 X91.218 Y82.962 E.1453
G1 X91.586 Y82.711 E.01952
G1 X94.422 Y81 E.14529
G1 X94.795 Y80.802 E.01851
G1 X97.849 Y79.407 E.14724
G1 X98.244 Y79.254 E.01856
G1 X101.417 Y78.224 E.1463
G1 X101.824 Y78.118 E.01846
G1 X105.071 Y77.459 E.1453
G1 X105.513 Y77.396 E.01958
G1 X108.813 Y77.112 E.14528
G1 X109.259 Y77.1 E.01954
G1 X112.533 Y77.193 E.14367
G1 X112.994 Y77.23 E.02026
G1 X116.293 Y77.705 E.14618
G1 X116.706 Y77.788 E.01845
G1 X119.954 Y78.64 E.14728
G1 X120.356 Y78.772 E.01856
G1 X123.443 Y79.974 E.14529
G1 X123.849 Y80.159 E.01955
G1 X126.785 Y81.709 E.1456
G1 X127.158 Y81.935 E.01914
G1 X129.893 Y83.804 E.1453
G1 X130.235 Y84.067 E.01891
G1 X132.75 Y86.246 E.14593
G1 X133.053 Y86.54 E.01852
G1 X135.309 Y88.998 E.14631
G1 X135.576 Y89.324 E.01847
G1 X137.538 Y92.022 E.14631
G1 X137.767 Y92.377 E.01854
G1 X139.418 Y95.301 E.14724
G1 X139.604 Y95.68 E.01855
G1 X140.894 Y98.733 E.14532
G1 X141.043 Y99.152 E.01949
G1 X141.976 Y102.329 E.14526
G1 X142.077 Y102.764 E.01954
G1 X142.642 Y106.028 E.14529
G1 X142.691 Y106.447 E.01849
G1 X142.882 Y109.777 E.1463
G1 X142.883 Y110.2 E.01855
G1 X142.691 Y113.553 E.14729
G1 X142.642 Y113.972 E.01849
G1 X142.073 Y117.259 E.14629
G1 X141.976 Y117.67 E.01853
G1 X141.036 Y120.87 E.14627
G1 X140.894 Y121.267 E.01848
G1 X139.604 Y124.319 E.14532
G1 X139.408 Y124.72 E.01957
G1 X137.779 Y127.603 E.14524
G1 X137.538 Y127.979 E.01957
G1 X135.59 Y130.659 E.14531
G1 X135.324 Y130.985 E.01847
G1 X133.069 Y133.444 E.14631
G1 X132.766 Y133.738 E.01852
G1 X130.247 Y135.923 E.14626
G1 X129.912 Y136.182 E.01856
G1 X127.146 Y138.073 E.14694
G1 X126.779 Y138.294 E.0188
G1 X123.835 Y139.847 E.14595
G1 X123.444 Y140.026 E.01888
G1 X120.357 Y141.228 E.14529
G1 X119.939 Y141.364 E.01925
G1 X116.728 Y142.207 E.14562
G1 X116.3 Y142.294 E.01913
G1 X113.014 Y142.767 E.14562
G1 X112.593 Y142.804 E.01853
G1 X109.244 Y142.9 E.14694
G1 X108.814 Y142.888 E.01886
G1 X105.498 Y142.603 E.14597
G1 X105.071 Y142.541 E.0189
G1 X101.824 Y141.882 E.1453
G1 X101.402 Y141.771 E.01913
G1 X98.244 Y140.746 E.14561
G1 X97.828 Y140.584 E.01958
G1 X94.816 Y139.208 E.14526
G1 X94.442 Y139.011 E.01851
G1 X91.585 Y137.289 E.14629
G1 X91.237 Y137.052 E.0185
G1 X88.577 Y135.001 E.1473
G1 X88.258 Y134.724 E.01852
G1 X85.867 Y132.398 E.14628
G1 X85.582 Y132.088 E.01847
G1 X83.48 Y129.518 E.14563
G1 X83.222 Y129.162 E.01929
G1 X81.431 Y126.374 E.14529
G1 X81.22 Y126.001 E.01879
G1 X79.751 Y123.015 E.14595
G1 X79.577 Y122.604 E.01956
G1 X78.464 Y119.484 E.14528
G1 X78.345 Y119.08 E.0185
G1 X77.584 Y115.809 E.14726
G1 X77.512 Y115.392 E.01855
G1 X77.133 Y112.078 E.14629
G1 X77.11 Y111.657 E.0185
G1 X77.11 Y108.343 E.14533
G1 X77.135 Y107.899 E.01951
G1 X77.512 Y104.608 E.14527
G1 X77.588 Y104.169 E.01957
G1 X78.339 Y100.942 E.14528
G1 X78.457 Y100.537 E.0185
G1 X79.577 Y97.396 E.14627
G1 X79.751 Y96.985 E.01956
G1 X81.213 Y94.011 E.14532
G1 X81.42 Y93.645 E.01845
G1 X83.222 Y90.838 E.14628
G1 X83.471 Y90.494 E.01861
G1 X85.597 Y87.895 E.14727
G1 X85.791 Y87.684 E.01259
G1 X86.121 Y87.988 F18000
G1 F2400
G1 X86.206 Y87.896 E.00551
G1 X88.558 Y85.61 E.14384
G1 X88.882 Y85.33 E.01875
G1 X91.479 Y83.327 E.14384
G1 X91.832 Y83.086 E.01873
G1 X94.64 Y81.392 E.14384
G1 X94.99 Y81.206 E.01738
G1 X98.027 Y79.819 E.14644
G1 X98.398 Y79.676 E.01742
G1 X101.547 Y78.654 E.14518
G1 X101.929 Y78.554 E.01733
G1 X105.144 Y77.902 E.14386
G1 X105.568 Y77.841 E.01879
G1 X108.835 Y77.561 E.14382
G1 X109.263 Y77.548 E.01875
G1 X112.506 Y77.641 E.14228
G1 X112.94 Y77.676 E.01911
G1 X116.213 Y78.146 E.14504
G1 X116.601 Y78.224 E.01732
G1 X119.831 Y79.072 E.14647
G1 X120.209 Y79.196 E.01743
G1 X123.265 Y80.386 E.14385
G1 X123.654 Y80.564 E.01877
G1 X126.56 Y82.098 E.14413
G1 X126.919 Y82.314 E.01835
G1 X129.627 Y84.165 E.14386
G1 X129.948 Y84.412 E.01778
G1 X132.444 Y86.575 E.14482
G1 X132.729 Y86.85 E.01739
G1 X134.968 Y89.289 E.1452
G1 X135.219 Y89.595 E.01734
G1 X137.166 Y92.272 E.14519
G1 X137.381 Y92.606 E.01741
G1 X139.023 Y95.513 E.14644
G1 X139.197 Y95.87 E.01741
G1 X140.474 Y98.892 E.14388
G1 X140.617 Y99.294 E.0187
G1 X141.541 Y102.44 E.1438
G1 X141.638 Y102.856 E.01876
G1 X142.197 Y106.088 E.14385
G1 X142.243 Y106.482 E.01736
G1 X142.434 Y109.787 E.14519
